assets/Diving mask/Flat/diving_mask_flat.svg

<svg width="32" height="32" viewBox="0 0 32 32" fill="none" xmlns="http://www.w3.org/2000/svg">
<path d="M11.0312 15.7377C11.151 17.0063 12.2202 18 13.52 18C14.8123 18 15.8766 17.0178 15.9985 15.7597L15.8816 15.5262C15.4355 15.148 15.1209 14.6936 14.8857 14.132L14.4162 13.1147C14.2666 12.7759 13.879 12.5171 13.52 12.5171C13.1511 12.5171 12.7063 12.7759 12.5667 13.1147L12.1256 14.132C11.8982 14.6751 11.577 15.104 11.151 15.4764L11.0312 15.7377Z" fill="#533566"/>
<path d="M11.7402 12.8047L11.3231 13.7873L11.3212 13.7919C10.8885 14.8253 9.87597 15.5 8.75357 15.5C6.12435 15.5 4 13.3761 4 10.75C4 8.12618 6.1221 6 8.77351 6H18.2464C20.8757 6 23 8.12392 23 10.75C23 13.3761 20.8757 15.5 18.2464 15.5C17.124 15.5 16.1116 14.8253 15.6788 13.7919L15.2553 12.7942L15.2524 12.7877C14.9495 12.1015 14.2712 11.6334 13.5 11.6334C12.7316 11.6334 12.0369 12.0914 11.7402 12.8047Z" fill="#83CBFF"/>
<path d="M22.3647 10.75C22.3647 8.46793 20.51 6.61438 18.2265 6.61438H8.75357C6.47009 6.61438 4.61538 8.46793 4.61538 10.75C4.61538 13.0321 6.47009 14.8856 8.75357 14.8856C9.63106 14.8856 10.4088 14.3674 10.7479 13.5602L11.1667 12.5736C11.5556 11.6369 12.4729 11.029 13.49 11.029C14.5071 11.029 15.4145 11.6369 15.8134 12.5736L16.2322 13.5602C16.5712 14.3674 17.349 14.8856 18.2265 14.8856C20.51 14.8856 22.3647 13.0321 22.3647 10.75ZM8.75357 5H18.2265C21.4074 5 23.99 7.57105 24 10.75C24 13.9289 21.4274 16.5 18.2464 16.5C16.7208 16.5 15.3447 15.5832 14.7564 14.1781L14.3376 13.1915C14.188 12.8527 13.859 12.6334 13.5 12.6334C13.1311 12.6334 12.802 12.8527 12.6624 13.1915L12.2436 14.1781C11.6553 15.5832 10.2792 16.5 8.75357 16.5C5.57265 16.5 3 13.9289 3 10.75C3 7.57105 5.57265 5 8.75357 5ZM28 22V6L27.5 5.5H25.5L25 6L25 21.9945C24.9999 21.9984 24.9997 22.0081 24.9992 22.023C24.9982 22.0529 24.996 22.1038 24.9911 22.1724C24.9813 22.3103 24.9608 22.517 24.9188 22.769C24.8337 23.2802 24.6661 23.9388 24.3459 24.5792C24.0286 25.2137 23.5762 25.8027 22.9258 26.2363C22.2847 26.6637 21.3625 27 20 27C18.6375 27 17.7153 26.6637 17.0742 26.2363C16.4238 25.8027 15.9714 25.2137 15.6541 24.5792C15.3339 23.9388 15.1663 23.2802 15.0812 22.769C15.0392 22.517 15.0187 22.3103 15.0089 22.1724C15.004 22.1038 15.0018 22.0529 15.0008 22.023C15.0004 22.0135 15.0002 22.0062 15.0001 22.0011C15.0001 21.9981 15 21.9945 15 21.9945L15 21.9933C14.9964 21.1679 14.3262 20.5 13.5 20.5C12.6716 20.5 11.9999 21.1716 12 22L12 22.0015L12 22.0032L12 22.0071L12.0001 22.0166L12.0004 22.0428C12.0007 22.0634 12.0013 22.0903 12.0024 22.123C12.0046 22.1883 12.0087 22.2771 12.0165 22.3862C12.0321 22.6038 12.0624 22.9049 12.122 23.2622C12.2399 23.9698 12.4786 24.9362 12.9709 25.9208C13.4661 26.9113 14.2325 27.9473 15.4101 28.7325C16.5972 29.5238 18.1125 30 20 30C21.8875 30 23.4028 29.5238 24.5899 28.7325C25.7675 27.9473 26.5339 26.9113 27.0291 25.9208C27.5214 24.9362 27.7601 23.9698 27.878 23.2622C27.9376 22.9049 27.9679 22.6038 27.9835 22.3862C27.9913 22.2771 27.9954 22.1883 27.9976 22.123C27.9987 22.0903 27.9993 22.0634 27.9996 22.0428L27.9999 22.0166L28 22.0071L28 22.0032L28 22.0015V22Z" fill="#F8312F"/>
<path d="M25.5 2C25.2239 2 25 2.22386 25 2.5V6H28V2.5C28 2.22386 27.7761 2 27.5 2H25.5ZM11.0171 20H15.9829C16.5513 20 17 20.451 17 21C17 21.549 16.5413 22 15.9829 22H11.0171C10.4587 22 10 21.549 10 21C10 20.451 10.4587 20 11.0171 20Z" fill="#533566"/>
</svg>

<svg xmlns="http://www.w3.org/2000/svg" width="32" height="32" fill="none"><path fill="#533566" d="M11.031 15.738A2.501 2.501 0 0 0 13.52 18a2.488 2.488 0 0 0 2.479-2.24l-.117-.234c-.447-.378-.761-.832-.996-1.394l-.47-1.017c-.15-.34-.537-.598-.896-.598-.369 0-.814.259-.953.598l-.441 1.017a3.57 3.57 0 0 1-.975 1.344l-.12.262Z"/><path fill="#83CBFF" d="m11.74 12.805-.417.982-.002.005A2.785 2.785 0 0 1 8.754 15.5 4.748 4.748 0 0 1 4 10.75 4.752 4.752 0 0 1 8.774 6h9.472A4.748 4.748 0 0 1 23 10.75a4.748 4.748 0 0 1-4.754 4.75 2.785 2.785 0 0 1-2.567-1.708l-.424-.998-.003-.006a1.923 1.923 0 0 0-1.752-1.155c-.768 0-1.463.458-1.76 1.172Z"/><path fill="#F8312F" d="M22.365 10.75a4.14 4.14 0 0 0-4.138-4.136H8.754a4.14 4.14 0 0 0-4.139 4.136 4.14 4.14 0 0 0 4.139 4.136c.877 0 1.655-.519 1.994-1.326l.419-.986a2.512 2.512 0 0 1 2.323-1.545c1.017 0 1.925.608 2.323 1.545l.42.986a2.152 2.152 0 0 0 1.994 1.326 4.14 4.14 0 0 0 4.138-4.136ZM8.754 5h9.473A5.771 5.771 0 0 1 24 10.75a5.748 5.748 0 0 1-5.754 5.75 3.784 3.784 0 0 1-3.49-2.322l-.418-.987a.923.923 0 0 0-.838-.558.902.902 0 0 0-.838.559l-.418.986a3.784 3.784 0 0 1-3.49 2.322A5.748 5.748 0 0 1 3 10.75 5.748 5.748 0 0 1 8.754 5ZM28 22V6l-.5-.5h-2L25 6v16.023a6.463 6.463 0 0 1-.08.746 6.487 6.487 0 0 1-.574 1.81c-.317.635-.77 1.224-1.42 1.657-.641.428-1.563.764-2.926.764-1.363 0-2.285-.336-2.926-.764-.65-.433-1.103-1.022-1.42-1.657a6.487 6.487 0 0 1-.573-1.81 6.463 6.463 0 0 1-.08-.768L15 21.994A1.5 1.5 0 0 0 12 22v.043l.002.08c.003.065.007.154.014.263.016.218.046.519.106.876.118.708.357 1.674.849 2.659.495.99 1.261 2.026 2.44 2.812C16.596 29.523 18.112 30 20 30c1.887 0 3.403-.476 4.59-1.267 1.177-.786 1.944-1.822 2.44-2.812a9.485 9.485 0 0 0 .848-2.659 9.48 9.48 0 0 0 .12-1.139l.002-.08V22Z"/><path fill="#533566" d="M25.5 2a.5.5 0 0 0-.5.5V6h3V2.5a.5.5 0 0 0-.5-.5h-2ZM11.017 20h4.966c.568 0 1.017.451 1.017 1 0 .549-.459 1-1.017 1h-4.966A1.013 1.013 0 0 1 10 21c0-.549.459-1 1.017-1Z"/></svg>
